www/assets/icons/repeat.svg

<svg xmlns="http://www.w3.org/2000/svg" width="24" height="24" viewBox="0 0 24 24" fill='currentColor'><path d="M7 7h10v3l4-4-4-4v3H5v6h2zm10 10H7v-3l-4 4 4 4v-3h12v-6h-2z"/></svg>

<svg width="24" height="24" viewBox="0 0 24 24" xmlns="http://www.w3.org/2000/svg" fill='currentColor'><path d="M7 7H17V10L21 6L17 2V5H5V11H7V7ZM17 17H7V14L3 18L7 22V19H19V13H17V17Z"/></svg>
